outputs/icons/device/location_point_sharp.svg

<svg xmlns="http://www.w3.org/2000/svg" width="1200" height="1200" fill="none"><g clip-path="url(#a)"><path fill="#000" d="M600 400c-110.5 0-200 89.5-200 200s89.5 200 200 200 200-89.5 200-200-89.5-200-200-200m447 150c-23-208.5-188.5-374-397-397V50H550v103c-208.5 23-374 188.5-397 397H50v100h103c23 208.5 188.5 374 397 397v103h100v-103c208.5-23 374-188.5 397-397h103V550zM600 950c-193.5 0-350-156.5-350-350s156.5-350 350-350 350 156.5 350 350-156.5 350-350 350"/></g><defs><clipPath id="a"><path fill="#fff" d="M0 0h1200v1200H0z"/></clipPath></defs></svg>

<svg width="1200" height="1200" viewBox="0 0 1200 1200" fill="none" xmlns="http://www.w3.org/2000/svg"><g clip-path="url(#clip0_133_59)"><path d="M600 400C489.5 400 400 489.5 400 600C400 710.5 489.5 800 600 800C710.5 800 800 710.5 800 600C800 489.5 710.5 400 600 400ZM1047 550C1024 341.5 858.5 176 650 153V50H550V153C341.5 176 176 341.5 153 550H50V650H153C176 858.5 341.5 1024 550 1047V1150H650V1047C858.5 1024 1024 858.5 1047 650H1150V550H1047ZM600 950C406.5 950 250 793.5 250 600C250 406.5 406.5 250 600 250C793.5 250 950 406.5 950 600C950 793.5 793.5 950 600 950Z" fill="black"/></g><defs><clipPath id="clip0_133_59"><path width="24" fill="white" d="M0 0H1200V1200H0V0z"/></clipPath></defs></svg>
